X:676
T:Hooligan's jig
T:Hullican jig
R:Jig
O:Ireland
S:From Richard Robinson &/or Richard Darsie's Web page
S:My arrangement from various sources
Z:Transcription, arrangement, chords:Mike Long
M:6/8
L:1/8
K:D
A,3|\
"D"D2D F2F|ABA F2D|"G"G2G BdB|"D"AFD "A"E2A|\
"D"D2D FDF|ABA FAd|"G"cBA "A"GFE|"D"D3:|
|:DFG|\
"D"ABA DFA|"G"BGB B2B|"A"cdc ABc|"D"dFA "A"dcB|\
"D"ABA DFA|"G"BGB dcB|"D"ABA "A"GFE|"D"D3:|
